X: 39993
T: Three In The Bed
R: jig
M: 6/8
K: Dmajor
|:Aaa agf|fed dcd|dee ede|fgf fed|
Aaa agf|fed dcd|efe ABc|1 d3 dcB:|2 d3 dcd||
dee ede|Aee deA|fgf fed|fgf fed|
dee ede|Aee deA|fgf fed|dcd dcd|
dee ede|Aee deA|fgf fed|agf fed|
dee ede|Aee deA||

